src/components/Icon/utils/svgsOptimized/arrow-square-up-right.svg

<?xml version="1.0" encoding="utf-8"?><svg width="24" height="24" xmlns="http://www.w3.org/2000/svg" viewBox="0 0 24 24"><path d="M9.65 13.64c-.2.2-.2.51 0 .71.2.2.51.2.71 0l3.15-3.15v1.79c0 .28.22.5.5.5s.5-.22.5-.5v-3c0-.28-.22-.5-.5-.5h-3c-.28 0-.5.22-.5.5s.22.5.5.5h1.79l-3.15 3.15Z"/><path fill-rule="evenodd" clip-rule="evenodd" d="M6.6 6h10.81c.33 0 .6.27.6.6v10.81c0 .33-.27.6-.6.6H6.6c-.33 0-.6-.27-.6-.6V6.6c0-.33.27-.6.6-.6Zm10.2 10.8V7.2H7.2v9.6h9.6Z"/></svg>

<svg width="24" height="24" viewBox="0 0 24 24"  xmlns="http://www.w3.org/2000/svg">
<path d="M9.65 13.64C9.45 13.84 9.45 14.15 9.65 14.35C9.85 14.55 10.16 14.55 10.36 14.35L13.51 11.2V12.99C13.51 13.27 13.73 13.49 14.01 13.49C14.29 13.49 14.51 13.27 14.51 12.99V9.99001C14.51 9.71001 14.29 9.49001 14.01 9.49001H11.01C10.73 9.49001 10.51 9.71001 10.51 9.99001C10.51 10.27 10.73 10.49 11.01 10.49H12.8L9.65 13.64Z" />
<path fill-rule="evenodd" clip-rule="evenodd" d="M6.6 6H17.41C17.74 6 18.01 6.27 18.01 6.6V17.41C18.01 17.74 17.74 18.01 17.41 18.01H6.6C6.27 18.01 6 17.74 6 17.41V6.6C6 6.27 6.27 6 6.6 6ZM16.8 16.8V7.2H7.2V16.8H16.8Z" />
</svg>
